X: 237
T: Bekledim Fecre Kadar
C: Râkım Elkutlu
O: Turkey
F: http://compmusic.upf.edu/node/140
N: hicazkar--sarki--aksak--bekledim_fecre--rakim_elkutlu
N: makam= hicazkar
N: form= sarki
N: usul= aksak = 9/8
M: 9/8
L: 1/16
K: C _1/4B _7/8e _7/8A ^f
Q: 1/4=108
%%MIDI tuningsystem comma53
z4 f2g2 g4 =a_bab ag | c'2 _b=aag gfg4g2 f2g2  | 
w:  Bek le dim  fec  |  *  *  *  re  *  ka *  dar  SAZ  | 
d4 e2ed c4 _b4 b=a | =a3gg2 agg4(3dcd (3_2/4ede=f2  | 
w:  gel me din  *  ah  ah   |  iş *  te  gü *  neş  de   | 
g2{=a}g=f f_1/4eed d4 g2g^f _7/8ef | \
w:  doğ *  *  *  *  *  *  *  du   SAZ  | 
g4f2 gba2 g2f3eed  | 
w:  *  Ge ce  *  meh *  tap  *  se  | 
d6_1/4e2 =f4 e2f2 g2 | =f6 fee2 edd2 dccB  | \
w:  ni  *  gök ler  *  se  |  ni  *  *  â *  *  lem  *  *  se  | 
B12 g=fed c2 | 
w:  ni  ben  | 
c3_Bc2 {e}dcc4g2 {a}gfef  | g4 f2gb a2g2 f2e2 ed | 
w:  den  *  sor *  *  *  du   SAZ  |  *  Ge ce  *  meh *  tap  *  se  | 
d6 _1/4e2=f4e2 f2g2  | =f6fe e2ed d2dc cB | \
w:  ni  *  gök ler  *  se  |  ni  *  *  â *  *  lem  *  *  se  | 
B12g=f edc2  | 
w:  ni  ben  | 
(3Bcd(3edc BAAG G4 _1/4e4 ^d=f | _1/4e4c2 e2e4g4=f/e/^d/e/  | 
w:  den  *  *  *  *  *  sor *  *  *  du   SAZ  |  *  De di ler  ner  | 
g2=f/_1/4e/^d/e/ _b2=ag gffe e4 (3fe=d | \
w:  *  *  *  *  *  de  o  *  meh *  *  *  veş   | 
d3c_1/4e2 =f2g4ga gagf  | 
w:  *  *  söy le  o  â  | 
_1/4e2d_b =agg=f feed d3f e^d | _1/4e4c2 e2e4g4=f/e/^d/e/  | 
w:  hu *  *  ya  *  ne  *  ol *  *  *  du    |  *  De di ler  ner  | 
g2=f/_1/4e/^d/e/ _b2=ag gffe e4 (3fe=d | \
w:  *  *  *  *  *  de  o  *  meh *  *  *  veş   | 
d3c_1/4e2 =f2g4ga gagf  | 
w:  *  *  söy le  o  â  | 
_1/4e2d_b =agg=f feed d4 ef | g4f2 gba2 g2f3eed  | 
w:  hu *  *  ya  *  ne  *  ol *  *  *  du   SAZ  |  *  Ge ce  *  meh *  tap  *  se  | 
d6_1/4e2 =f4 e2f2 g2 | =f6 fee2 edd2 dccB  | \
w:  ni  *  gök ler  *  se  |  ni  *  *  â *  *  lem  *  *  se  | 
B12 g=fed c2 | 
w:  ni  ben  | 
c3_Bc2 {e}dcc4g2 {a}gfef  | g4 f2gb a2g2 f2e2 ed | 
w:  den  *  sor *  *  *  du   SAZ  |  *  Ge ce  *  meh *  tap  *  se  | 
d6 _1/4e2=f4e2 f2g2  | =f6fe e2ed d2dc cB | \
w:  ni  *  gök ler  *  se  |  ni  *  *  â *  *  lem  *  *  se  | 
B12g=f edc2  | 
w:  ni  ben  | 
(3Bcd(3edc BAAG G4 z6 | |


